X:1
T:Benedictus
T:Benedictus
T:John Farmer
T:Source : The Whole Book of Psalms---London---Th.Est(e)---1592. Editor : André Vierendeels (25/08/16).
T:Notes : Original clefs : C1, C3, C4, F4 Editorial accidental above the staff Original note values have been halved, except m 8, 13 and 18.
T:©
T:©
T:©
C:John Farmer
Z:©
%%score [ 1 [ 2 3 ] 4 ]
L:1/8
Q:1/4=125
M:2/2
K:F
V:1 treble nm="Soprano" snm="S"
V:2 treble-8 nm="Tenor 1" snm="T 1"
V:3 treble-8 nm="Tenor 2" snm="T 2"
V:4 bass nm="Bass" snm="B"
V:1
 C4 D2 E2 | F4 E2 F2- | F2 F2 F4 || F2 G3 F F2- | F2 E2 F4 || D2 F4 G2 | G2 A2 G2 F2 | E8 || %8
w: The one- ly|Lord of Is-|* ra- ell|be prai- sed e-|* ver- more:|for through his|vi- si- ta- ti-|on,|
 F2 B4 B2 | A2 G2 F4 || F4 c2 c2 | A2 A2 A2 G2 | G8 || A4 G2 A2 | G2 G2 ^F4 || D2 F4 E2 | %16
w: & mer- cy|kept in store:|his peo- ple|now he hath re-|deemd,|that long hath|beene in thrall:|& spread a-|
 G2 F2 E2 D2 | ^C8 || D2 E4 F2 | G2 F4 E2 | F8 |] %21
w: broad his sa- ving|health,|up- on- his|se- * vants|all.|
V:2
 A4 F2 c2 | A4 c2 c2- | c2 c2 d4 || d2 d4 c2 | d2 c2 A4 || B4 c2 B2 | G2 c2 c2 c2 | c8 || %8
w: The one- ly|Lord of Is-|* ra- ell|be prai- sed|e- ver- more:|for through his|vi- si- ta- ti-|on,|
 A2 G2 _e2 d2 | c3 B A4 || c2 f4 e2 | d2 c2 c2 =B2 | c8 || f4 e2 f2 | d2 _e2 d4 || %15
w: & mer- cy kept|in _ store:|his peo- ple|now he had re-|deemd,|that long hath|beene in thrall:|
"^-natural" f4 c2 c2 | d2 c2 c2 A2 | A8 || A2 c4 c2 | d4 c4 | A8 |] %21
w: & spread a-|broad his sa- ving|health,|up- on his|ser- vants|all.|
V:3
 F4 D2 C2 | F4 G2 A2- | A2 A2 F4 || F2 B4 A2 | G2 G2 F4 || F4 C2 D2 | E2 F2 G2 A2 | G8 || %8
w: The one- ly|Lord of Is-|* ra- ell|be prai- sed|e- ver- more:|for through his|vi- si- ta- ti-|on,|
 F2 G4 F2 | F2 E2 F4 || A4 A2 G2 | F2 E2 D2 D2 | C8 || c4 c2 A2 | B2 c2 A4 || A4 A2 G2 | %16
w: & mer- cy|kept in store:|his peo- ple|now he had re-|deemd,|that long hath|beene in thrall:|& spread a-|
 B2 A2 G2 F2 | E8 || F2 G4 A2 | B4 G4 | F8 |] %21
w: broad his sa- ving|health,|up- on his|ser- vants|all.|
V:4
 F,,4 B,,2 A,,2 | D,4 C,2 F,2- | F,2 F,,2 B,,4 || B,,2 G,,4 A,,2 | B,,2 C,2 F,,4 || %5
w: The one- ly|Lord of Is-|* ra- ell|be prai- sed|e- ver- more:|
 B,,4 A,,2 G,,2 | C,2 F,,2 C,2 F,2 | C,8 || D,2 _E,4 B,,2 | C,2 C,2 F,,4 || F,4 F,2 C,2 | %11
w: for through his|vi- si- ta- ti-|on,|& mer- cy|kept in store:|his peo- ple|
 D,2 A,,2 F,,2 G,,2 | C,8 || F,4 C,2 F,2 | G,2 C,2 D,4 || D,4 F,2 C,2 | B,,2 F,,2 C,2 D,2 | G,,8 || %18
w: now he had re-|deemd,|that long hath|beene in thrall:|& spread a-|broad his sa- ving|health,|
 D,2 C,4 F,2 | B,,4 C,4 | F,,8 |] %21
w: up- on his|ser- vants|all.|

